Pods/ProtonCore-UIFoundations/libraries/UIFoundations/Sources/Assets.xcassets/Images/IconSet/ic-emoji.imageset/ic-emoji.svg

<svg width="24" height="24" viewBox="0 0 24 24" fill="none" xmlns="http://www.w3.org/2000/svg">
<path fill-rule="evenodd" clip-rule="evenodd" d="M21 12C21 16.9706 16.9706 21 12 21C7.02944 21 3 16.9706 3 12C3 7.02944 7.02944 3 12 3C16.9706 3 21 7.02944 21 12ZM22.5 12C22.5 17.799 17.799 22.5 12 22.5C6.20101 22.5 1.5 17.799 1.5 12C1.5 6.20101 6.20101 1.5 12 1.5C17.799 1.5 22.5 6.20101 22.5 12ZM15.75 12C16.5784 12 17.25 11.3284 17.25 10.5C17.25 9.67157 16.5784 9 15.75 9C14.9216 9 14.25 9.67157 14.25 10.5C14.25 11.3284 14.9216 12 15.75 12ZM9.75 10.5C9.75 11.3284 9.07843 12 8.25 12C7.42157 12 6.75 11.3284 6.75 10.5C6.75 9.67157 7.42157 9 8.25 9C9.07843 9 9.75 9.67157 9.75 10.5ZM6.99151 15.1254C6.83089 14.6823 7.18756 14.25 7.65888 14.25H16.3411C16.8124 14.25 17.1691 14.6823 17.0085 15.1254C16.2404 17.2444 14.2877 18.75 12 18.75C9.71235 18.75 7.7596 17.2444 6.99151 15.1254Z" fill="#0C0C14"/>
</svg>

<svg xmlns="http://www.w3.org/2000/svg" width="24" height="24" viewBox="0 0 24 24">
  <g class="ic-emoji">
    <path fill-rule="evenodd" d="M21 12a9 9 0 1 1-18 0 9 9 0 0 1 18 0Zm1.5 0c0 5.799-4.701 10.5-10.5 10.5S1.5 17.799 1.5 12 6.201 1.5 12 1.5 22.5 6.201 22.5 12Zm-6.75 0a1.5 1.5 0 1 0 0-3 1.5 1.5 0 0 0 0 3Zm-6-1.5a1.5 1.5 0 1 1-3 0 1.5 1.5 0 0 1 3 0Zm-2.758 4.625c-.161-.443.196-.875.667-.875h8.682c.471 0 .828.432.668.875-.769 2.12-2.721 3.625-5.009 3.625-2.288 0-4.24-1.506-5.008-3.625Z" class="Icon"/>
  </g>
</svg>
